docs/assets/img/cloud.svg

<svg width="489" height="324" viewBox="0 0 489 324" fill="none" xmlns="http://www.w3.org/2000/svg">
<path d="M1.11866 241.927C9.01061 283.419 56.4229 310.643 107.094 302.857C132.275 298.988 153.53 287.094 167.61 271.127C166.901 274.975 166.842 278.866 167.56 282.638C173.353 313.094 225.152 330.585 283.129 321.677C341.106 312.768 383.5 280.804 377.707 250.348C377.627 249.929 377.548 249.51 377.468 249.091C386.789 257.724 400.628 262.355 414.928 260.158C437.932 256.623 453.395 236.993 449.463 216.316C448.48 211.147 446.462 206.425 443.461 202.428C472.618 195.073 492.332 175.077 488.532 155.099C485.689 140.151 470.498 129.256 450.544 125.277C464.958 108.54 471.735 88.662 467.936 68.6844C459.353 23.5594 399.698 -4.94649 334.571 5.06062C302.863 9.93279 275.911 22.9891 257.455 40.347C228.995 30.3419 190.795 27.1527 150.382 33.3625C142.921 34.5087 135.514 35.9347 128.47 37.5923C128.39 37.1726 128.492 36.8699 128.413 36.4502C126.818 28.0682 113.885 23.1536 99.4295 25.3749C84.9744 27.5961 74.5919 36.0926 76.1867 44.4754C76.8503 47.9681 79.6375 50.8463 83.5626 52.976C42.4057 72.097 17.417 100.524 22.6252 127.906C25.1761 141.317 34.5356 152.677 48.7057 161.571C15.1306 177.658 -5.0993 209.236 1.11866 241.927Z" fill="white"/>
<path d="M44.5314 27.7599C47.856 31.8957 56.286 31.4923 63.4443 26.8452C70.6018 22.1973 73.6767 15.131 70.3524 10.9947C67.0281 6.85873 58.5981 7.26168 51.4397 11.9093C44.2815 16.557 41.2072 23.6234 44.5314 27.7599Z" fill="white"/>
<path d="M21.794 2.13282C17.6994 4.7914 15.9511 8.90121 17.889 11.3124C19.8269 13.7236 24.7171 13.523 28.8117 10.8644C32.9063 8.20595 34.6546 4.09613 32.7168 1.68497C30.7788 -0.726204 25.8886 -0.525674 21.794 2.13282Z" fill="white"/>
</svg>

<svg width="489" height="324" fill="none" xmlns="http://www.w3.org/2000/svg"><path d="M1.119 241.927c7.892 41.492 55.304 68.716 105.975 60.93 25.181-3.869 46.436-15.763 60.516-31.73-.709 3.848-.768 7.739-.05 11.511 5.793 30.456 57.592 47.947 115.569 39.039 57.977-8.909 100.371-40.873 94.578-71.329l-.239-1.257c9.321 8.633 23.16 13.264 37.46 11.067 23.004-3.535 38.467-23.165 34.535-43.842-.983-5.169-3.001-9.891-6.002-13.888 29.157-7.355 48.871-27.351 45.071-47.329-2.843-14.948-18.034-25.843-37.988-29.822 14.414-16.737 21.191-36.615 17.392-56.593-8.583-45.125-68.238-73.63-133.365-63.623-31.708 4.872-58.66 17.928-77.116 35.286-28.46-10.005-66.66-13.194-107.073-6.985-7.461 1.147-14.868 2.573-21.912 4.23-.08-.42.022-.722-.057-1.142-1.595-8.382-14.528-13.296-28.984-11.075-14.455 2.221-24.837 10.718-23.242 19.1.663 3.493 3.45 6.371 7.376 8.501-41.157 19.121-66.146 47.548-60.938 74.93 2.551 13.411 11.91 24.771 26.08 33.665-33.574 16.087-53.804 47.665-47.586 80.356zM44.531 27.76c3.325 4.136 11.755 3.732 18.913-.915 7.158-4.648 10.233-11.714 6.908-15.85-3.324-4.136-11.754-3.733-18.912.914-7.158 4.648-10.233 11.714-6.909 15.85zM21.794 2.133c-4.095 2.658-5.843 6.768-3.905 9.18 1.938 2.41 6.828 2.21 10.923-.449 4.094-2.658 5.843-6.768 3.905-9.179-1.938-2.411-6.828-2.21-10.923.448z" fill="#fff"/></svg>
